X: 648
T: Hogeyed Man
B: jims roots
M:C
L:1/8
R: Reel
Q: 1/4=100
K:Ador
V:1 
%N:From a transcription by John Lamancusa, by permission http://www.mne.psu.edu/lamancusa/tunes.htm
"Am"AcAG E3B | "(C)"c2A2 "Em"B2G2 | "Am"ABAG "(G)"EGAG | "E7"E2 EG "Am"A4 |
"Am"AcAG E3B | "(C)"c2d2 "Em"e4 | "Am"c2A2 "(G)"GEAG | "E7"EDEG "Am"A4 :|
"Am"A2 AB cBAB | "(C)"c2d2 "Em"e4 | "Am"e2 ef "(G)"g2 ag | "E7"eged "Am"c2A2 |
"Am"A3B cBAB | "(C)"c2d2 "Em"e4 | "Am"e2 ef "(G)"g2 ag | [M:6/4] "E7"eged c2A2 "Am"A4 ||
% abcbook-tune_id 6298c25d59228dcf6747e1bd


% abcbook-boost 0
% abcbook-tablature 
% abcbook-transpose 
% abcbook-lastupdated 1654178398772
% abcbook-soundfonts 
% abcbook-repeats 1


